X:1
T:Ridon'hor per le piaggie
T:Madalena Casulana
T:Source : Secondo libro de madrigali a quattro voci---Venetia---G.Scotto---1570. Editor : André Vierendeels (17/08/17).
T:Ridon'hor per le piaggie
T:©
T:©
T:©
T:©
C:Madalena Casulana
Z:©
%%score [ 1 2 3 4 ]
L:1/8
Q:1/4=120
M:2/2
K:C
V:1 treble nm="Soprano" snm="S"
V:2 treble nm="Alto" snm="A"
V:3 treble-8 nm="Tenor" snm="T"
V:4 bass nm="Bass" snm="B"
V:1
 A6 A2 | A4 A2 B2 | c6 B2 | A2 G2 A4 | A4 A4- | A2 A2 d4 | B4 z2 A2- | AA A2 B4 | G2 c4 B2 | %9
w: Ri- don'|hor per le|piag- gie'her-|bet- t'e fio-|ri, es-|* ser non|puo es-|* ser non puo|che quel an-|
 A2 A2 A4 | A4 z2 A2 | c2 A2 G2 F2 | F2 E2 F2 G2 | A4 A2 E2 | F4 E2 D2 | z4 z2 D2 | F2 E2 F2 G2 | %17
w: ge- lic' al-|ma, non|sent' il suon del'|a- mo- ro- se|no- te, non|sent' il suon|de|l'a- mo- ro- se|
 A4 A2 A2 | B6 c2 | c4 f4 | e4 c4 | c2 B2 d4 | B4 c4- | c4 c4 | d8 | G2 c2 c2 c2 | c2 BA B2 A2 | %27
w: no- te, se|no- stra|ria for-|tu- n'è|di piu for-|za, la-|* gri-|mand'|e can- tan- do'i|no- * * * stri|
 A4 A4 | z2 c2 B2 c2 |[M:3/4] A4 B2 |[M:2/2] c4 z2 c2 | cBAG F2 G2 | A4 A4 | z2 c2 B2 c2 | %34
w: ver- si,|e col bue|zopp' an-|drem cac-|cian- * * * * do|l'au- ra,|e col' bue|
[M:3/4] A4 B2 |[M:2/2] c4 z2 c2 | cBAG F2 G2 | A8 | A8 |] %39
w: zopp' an|dre cac-|cian- * * * * do|l'au-|ra.|
V:2
 E6 E2 | E4 ^F2 G2 | A4 G4 | E2 D2 E4 | F4 ^F4- | F2 ^F2 A4 | G2 G3 G E2 | F4 D2 G2 | E2 E4 D2 | %9
w: Ri- don'|hor per le|piag- gie'her-|bet- t'e fio-|ri, es-|* ser non|puo, es- ser non|puo che quel|an- ge- lic'|
 D4 ^C4 |"^-natural" z2 D2 F4 | E4 E2 C2 | C2 C2 D4 | C2 D3 C CB,/C/ | D2 C2 z2 D2 | C2 A,2 D4- | %16
w: al- ma,|non sent'|il suon del'|a- mo- ro-|se no- * * * *|* te, de|l'a- mo- ro-|
 D2 C2 _B,4 | A,4 z2 E2 | G4 G4 | F6 D2 | G2 G2 A2 E2- | E2 G3 ^F F2 | G4 A4- | A4 G4 | F8 | %25
w: * se no-|te, se|no- stra|ria for-|tu- n'è di piu|_ for- * *|za, la-|* gri-|mand'|
 E2 G2 A2 A2 | G6 F2 | E4 ^F4 | z2 G2 G2 G2 |[M:3/4] F4 F2 |[M:2/2] G4 z2 A2 | AGFE D2 D2 | %32
w: e can tan- do'i|no- stri|ver- si,|e col bue|zopp' an-|drem cac-|cian- * * * * do|
 E4 ^F4 | z2 G2 G2 G2 |[M:3/4] F4 F2 |[M:2/2] G4 z2 A2 | AGFE D2 D2 | E8 | ^F8 |] %39
w: l'au- ra,|e col bue|zopp' an|dre cac-|cian- * * * * do|l'au-|ra.|
V:3
 ^c6 c2 | ^c4 d2 d2 | f2 ed e2 d2 | c2 d4 ^c2 | d8 | z2 d3 d d2 | e2 e3 e ^c2 | d4 G2 d2 | %8
w: Ri- don'|hor per le|piag- * * * gie'her-|bet- t'e fio-|ri,|es- ser non|puo, es- ser non|puo che quel|
 c2 G4 G2 | F2 ED E4 | ^F4 z4 | z2 A2 c2 A2 | G4 z2 D2 | F4 E4 | D2 A2 G4 | E2 F4 G2 | A4 d4 | %17
w: an- ge- lic'|al- * * *|ma,|non sent' il|suon, non|sent' il|suon de l'a-|mo- ro- se|no- te,|
 z4 z2 c2 | d4 e4 | A2 c4 B2 | c4 A2 G2 | G4 A4 | z4 A4- | A4 c4- | c4 B4 | c2 e2 f2 ed | %26
w: se|no- stra|ria for- tun'|è di piu|for- za,|la-|* gri-|* mend'|e can- tan _ _|
 e2 d2 d2 d2- | d2 ^c2 d4 | z2 e2 d2 e2 |[M:3/4] c4 d2 |[M:2/2] e2 e2 edcB | A4 d2 d2- | %32
w: do'i no- stri ver-|* * si,|e col bue|zopp' an-|drem cac- cian- * * *|* do l'au-|
 d^c c2 d4 | z2 e2 d2 e2 |[M:3/4] c4 d2 |[M:2/2] e2 e2 edcB | A2 A2 d4- | d2 ^cB c4 | d8 |] %39
w: * * * ra,|e col bue|zopp' an|dre cac- cian- * * *|* do l'au-||ra.|
V:4
 A,6 A,2 | A,4 D,2 G,2 | F,G,A,B, C2 G,2 |"^b" A,2 B,2 A,4 | D,8 | z8 | z2 E,3 E, A,2 | %7
w: Ri- don'|hor per le|piag- * * * * gie'her-|brt- t'e fio-|ri,||es- ser no|
 D,4 z2 G,,2 | C,4 G,,4 | D,2 D,2 A,,4 | D,8 | z4 z2 A,,2 | C,4 _B,,4 | A,,8 | z2 A,,2 C,2 B,,2 | %15
w: puo, che|quel an-|ge- lic' al|ma,|non|sent' il|suon,|de l'a- mo-|
 C,2 D,2 _B,,4 | A,,4 z4 | z4 z2 A,2 | G,4 E,4 | F,4 D,4 | C,2 E,2 F,2 C,2 | E,4 D,4 | %22
w: ro- se no-|te,|se|no- stra|ria for-|tu- n'è di piu|for- za,|
"^-natural" z4 F,4- | F,4 E,4 | D,8 | C,2 C2 F,G,A,B, | C2 G,2 G,2 D,2 | A,4 D,4 | z2 C,2 G,2 E,2 | %29
w: la-|* gri-|mand'|e can- tan- * * *|* do'i no- stri|ver- si,|e col bue|
[M:3/4] F,4 D,2 |[M:2/2] C,2 C2 CB,A,G, |"^b" F,4 B,4 | A,4 D,4 | z2 C,2 G,2 E,2 |[M:3/4] F,4 D,2 | %35
w: zopp' an-|dre cac- cian- * * *|* do|l'au- ra|e col bue|zopp' an|
[M:2/2] C,2 C2 CB,A,G, |"^b" F,4 B,4 | A,8 | D,8 |] %39
w: drem cac- cian- * * *|* do|l'au-|ra.|

